X:49
T:Dinah
C: Django Reinhardt solo
N:Arranged for mandolin by Mike Stangeland
L:1/8
Q:1/4=224
M:4/4
K:G
z8 | [eB]e ea za za | [^d^A]d d/d/^g zg zg | [dG]d d/d/g zg z[cF] | [c2F2] [^A2E2] [B2=F2] [c2^F2] | 
"G"[B8G8] | D3D z2 B,2 | D3G,4G, | B,E G2 B3d | "D7"z2 c2 AF ED | z2 d2 cB GD | 
"G"B,3B, DG Bd | "D7"c4 D3^C | "G"D2 ^D2 E4 | z2 D(3E2 (3G2A2 B2 | (3d2B2 d2 (3BdB z2 | 
z2 GA BG AB | (3"D7"d2B2 d2 (3BdB z2 | z2 AB dB AF | "G"G2 DB, "D7"^A,2 A,2 | 
"G"G,4 FG A^A | "Em"BA GE B,G, B,G, | ^DE GG, DE GB | "Em7"ze4z ^de | "Em6"fe zg g3f | 
(3"Em"e2B2 G2 E4 | "Em7"g2 fe "Em6"B3g | "D7"z2 fe cA FE | DC DF D4 | "G"zd zd (3c/d/c/z Bc | 
zd4z dd | zd3 c2 cc | zd3 d4 | "D7"z4 D4 | zd zc AF ED | "G"G3B, DG Bd | "D7"ce (3ded (3ede (3ded | 
"G"e4 gf af | gf af gf af | gd B2 G4 | (3zB,D (3GBd f2 ec | "D7"(3A/B/A/z FE DC3 | 
z4 zg (3ggg | (3"G"fgf (3=f^f=f (3efe (3^ded | (3"D7"d^d=d (3^cdc (3=c^c=c (3BcB | 
(3"G"^ABA (3=A_BA (3^GAG (3=G^G=G | (3FGF (3=F^F=F (3FEE (3EEE | (3GGG (3GGG (3GEE (3EEE | 
(3EEE (3EEEe ze | "D7"ze ee ee ee | ee ea b2 ag | "G"ed ^AB A4 | "G"G8 | "Em"[B3B,3][^c^C] z2 [^d2^D2] | 
z[eE] z2 [f2F2] [e2E2] | "Em7"[g2G2] z6 | "Em6"z4 [^c2^C2] [^d2^D2] | "Em"[f3F3][eE] z2 [^d2^D2] | 
"Em7"[f3F3][eE] "Em6"z2 [^d2^D2] | "D7"[f2F2] [eE][fF] z[fF] z2 | [f2F2] [e2E2] [f2F2] [e2E2] | 
"G"z4 (3def (3gfe | (3def (3gfe (3def (3gfe | (3def (3gfe (3def (3gfe | (3d^c=c (3Bd^c (3=cBA (3GFE | 
"D7"D4 z[^A3E3G,3] | [d2F2C2] [^cFC][c2F2C2][=c3F3C3] | "G"z[eBG] z2 z4 | z8 | 
z8 | z8 | 


